<?xml version="1.0" encoding="UTF-8"?>
<map version="1.10" tiledversion="1.12.0" orientation="orthogonal" renderorder="right-down" width="30" height="10" tilewidth="16" tileheight="16" infinite="0" nextlayerid="5" nextobjectid="1">
 <tileset firstgid="1" source="P7_blocking.tsx"/>
 <tileset firstgid="37" source="P9_tileset.tsx"/>
 <layer id="2" name="Fondo" width="30" height="10">
  <data encoding="csv">
71,71,71,71,71,71,71,71,71,71,71,71,71,71,71,71,71,71,71,71,71,71,71,71,71,71,71,71,71,71,
71,71,71,71,71,71,71,71,71,71,71,71,71,71,71,71,71,71,71,71,71,71,71,71,71,71,71,71,71,71,
71,71,71,71,71,71,71,71,71,71,71,72,72,72,72,72,72,72,72,71,71,71,71,71,71,71,71,71,71,71,
71,71,71,71,71,71,71,71,72,72,72,72,72,72,72,72,72,72,72,72,72,72,71,71,71,71,71,71,71,71,
71,71,71,71,71,71,71,72,72,72,72,72,72,66,66,66,66,72,72,72,72,72,72,71,71,71,71,71,71,71,
71,71,71,71,71,71,72,72,72,72,72,66,66,66,66,66,66,66,66,72,72,72,72,72,71,71,71,71,71,71,
71,71,71,71,71,72,72,72,72,72,66,66,66,66,66,66,66,66,66,66,72,72,72,72,72,71,71,71,71,71,
71,71,71,71,72,72,72,72,72,66,66,66,66,66,66,66,66,66,66,66,66,72,72,72,72,72,71,71,71,71,
71,71,71,71,72,72,72,72,72,66,66,66,66,66,66,66,66,66,66,66,66,72,72,72,72,72,71,71,71,71,
71,71,71,72,72,72,72,72,66,66,66,66,66,66,66,66,66,66,66,66,66,66,72,72,72,72,72,71,71,71
</data>
 </layer>
 <layer id="4" name="BLOCKING" width="30" height="10" visible="0">
  <data encoding="csv">
7,0,0,0,0,0,0,0,0,0,0,0,0,0,0,0,0,0,0,0,0,0,0,0,0,0,0,0,0,9,
7,0,0,0,0,0,0,0,0,0,0,0,0,0,0,0,0,0,0,0,0,0,0,0,0,0,0,0,0,9,
7,4,5,5,6,0,0,0,0,0,0,0,0,0,0,0,0,0,0,0,0,0,0,0,0,0,0,0,0,9,
7,0,0,0,0,0,4,6,0,0,0,0,0,0,0,0,0,0,0,0,0,0,0,0,0,0,0,0,0,9,
7,0,0,0,0,0,0,0,0,4,6,0,0,0,0,0,0,0,0,0,0,0,0,0,0,0,0,0,0,9,
7,0,0,0,0,0,4,6,0,0,0,0,0,0,0,0,0,0,0,0,0,0,0,22,23,23,23,24,0,9,
7,0,0,0,0,0,0,0,4,6,0,0,0,0,0,0,0,0,0,0,0,0,0,19,20,20,20,21,0,9,
7,0,0,0,0,0,0,0,0,0,4,6,0,0,0,0,0,0,0,0,0,0,0,25,28,26,29,27,0,9,
7,10,0,0,0,0,0,0,0,0,0,0,0,0,0,0,12,12,0,0,0,0,0,31,34,32,32,33,0,9,
13,14,14,14,14,14,14,14,14,14,0,0,14,0,0,14,14,14,14,14,14,14,14,14,14,14,14,14,14,15
</data>
 </layer>
 <layer id="1" name="Suelo" width="30" height="10">
  <data encoding="csv">
43,0,0,0,0,0,0,0,0,0,0,0,0,0,0,0,0,0,0,0,0,0,0,0,0,0,0,0,0,45,
43,0,0,0,0,0,0,0,0,0,0,0,0,0,0,0,0,0,0,0,0,0,0,0,0,0,0,0,0,45,
43,40,41,41,42,0,0,0,0,0,0,0,0,0,0,0,0,0,0,0,0,0,0,0,0,0,0,0,0,45,
43,0,0,0,0,0,40,42,0,0,0,0,0,0,0,0,0,0,0,0,0,0,0,0,0,0,0,0,0,45,
43,0,0,0,0,0,0,0,0,40,42,0,0,0,0,0,0,0,0,0,0,0,0,0,0,0,0,0,0,45,
43,0,0,0,0,0,40,42,0,0,0,0,0,0,0,0,0,0,0,0,0,0,0,0,0,0,0,0,0,45,
43,0,0,0,0,0,0,0,40,42,0,0,0,0,0,0,0,0,0,0,0,0,0,0,0,0,0,0,0,45,
43,0,0,0,0,0,0,0,0,0,40,42,0,0,0,0,0,0,0,0,0,0,0,0,0,0,0,0,0,45,
43,46,0,0,0,0,0,0,0,0,0,0,0,0,0,0,48,48,0,0,0,0,0,0,0,0,0,0,0,45,
49,50,53,50,52,54,53,50,52,54,0,0,50,0,0,50,53,50,52,54,50,53,50,52,54,53,50,52,54,51
</data>
 </layer>
 <layer id="3" name="casa" width="30" height="10">
  <data encoding="csv">
0,0,0,0,0,0,0,0,0,0,0,0,0,0,0,0,0,0,0,0,0,0,0,0,0,0,0,0,0,0,
0,0,0,0,0,0,0,0,0,0,0,0,0,0,0,0,0,0,0,0,0,0,0,0,0,0,0,0,0,0,
0,0,0,0,0,0,0,0,0,0,0,0,0,0,0,0,0,0,0,0,0,0,0,0,0,0,0,0,0,0,
0,0,0,0,0,0,0,0,0,0,0,0,0,0,0,0,0,0,0,0,0,0,0,0,0,0,0,0,0,0,
0,0,0,0,0,0,0,0,0,0,0,0,0,0,0,0,0,0,0,0,0,0,0,0,0,0,0,0,0,0,
0,0,0,0,0,0,0,0,0,0,0,0,0,0,0,0,0,0,0,0,0,0,0,58,59,59,59,60,0,0,
0,0,0,0,0,0,0,0,0,0,0,0,0,0,0,0,0,0,0,0,0,0,0,55,56,56,56,57,0,0,
0,0,0,0,0,0,0,0,0,0,0,0,0,0,0,0,0,0,0,0,0,0,0,61,64,62,65,63,0,0,
0,0,0,0,0,0,0,0,0,0,0,0,0,0,0,0,0,0,0,0,0,0,0,67,70,68,68,69,0,0,
0,0,0,0,0,0,0,0,0,0,0,0,0,0,0,0,0,0,0,0,0,0,0,0,0,0,0,0,0,0
</data>
 </layer>
</map>
